file/fox-business.svg

<svg clip-rule="evenodd" fill-rule="evenodd" stroke-linejoin="round" stroke-miterlimit="1.41421" viewBox="0 0 560 400" xmlns="http://www.w3.org/2000/svg"><path d="m94.2 32-9.5-32h10.1l4.3 32zm-11.1 0h-11.5l-4.7-7.2-4.6 7.2h-11.3l10.4-16.9-9.7-15.1h11.3l4.2 6.8 3.6-6.8h11.5l-9.9 15.3zm-44.3-.1c-9.7 0-17.6-7.1-17.6-16 0-8.8 7.9-16 17.6-16s17.6 7.1 17.6 16c.1 8.9-7.8 16-17.6 16zm3.2-23.1s.1-2.3-3.1-2.3c-3.1 0-2.9 2.3-2.9 2.3v14.6s-.1 1.6 2.8 1.6 3.2-1.2 3.2-2.8zm-31.9 4.2h10v9h-10v10h-10.1v-32h21.4l.1 9h-11.4zm2.3 21.9c.5.5.7 1.2.7 2 0 1-.4 1.7-1.1 2.3.9.5 1.3 1.3 1.3 2.4 0 .8-.3 1.5-.8 2-.5.7-1.2 1.4-2.1 1.4h-10.4v-11h10.1c1 0 1.7.3 2.3.9zm-9.9 7.2h7.8c.4 0 .5-.3.5-.8s-.2-.8-.5-.8h-7.8zm0-4h7.6c.4 0 .5-.3.5-.8s-.2-.8-.5-.8h-7.6zm14.7 3.2c0 .5.2.8.5.8h7c.3 0 .5-.3.5-.8v-7.3h2.5v7.3c0 .9-.3 1.7-.8 2.3-.6.6-1.3 1.4-2.2 1.4h-7c-.9 0-1.6-.8-2.2-1.4s-.8-1.4-.8-2.3v-7.3h2.5zm21.8-.8h-6.7c-.9 0-1.6-.3-2.2-1-.6-.6-.8-1.4-.8-2.3s.3-1.7.8-2.3c.6-.6 1.3-1 2.2-1h9.2v2.5h-9.2c-.3 0-.5.3-.5.8s.2.8.5.8h6.7c.9 0 1.6.3 2.2 1 .5.6.8 1.4.8 2.3s-.3 1.6-.8 2.3c-.6.6-1.3 1.4-2.2 1.4h-9.2v-2.9h9.2c.3 0 .5-.3.5-.8s-.1-.8-.5-.8zm6.8 4.5h-2.5v-11h2.5zm10.5-3.9v-7.1h2.5v11h-2.5l-6.4-7.5v7.5h-2.5v-11h2.5zm15.4-4.6h-8.9v1.6h8.3v2.5h-8.3v1.6h8.8v2.8h-11.3v-11h11.3v2.5zm11.3 4h-6.7c-.9 0-1.6-.3-2.2-1-.6-.6-.8-1.4-.8-2.3s.3-1.7.8-2.3c.6-.6 1.3-1 2.2-1h9.2v2.5h-9.2c-.3 0-.5.3-.5.8s.2.8.5.8h6.7c.9 0 1.6.3 2.2 1 .5.6.8 1.4.8 2.3s-.3 1.6-.8 2.3c-.6.6-1.3 1.4-2.2 1.4h-9.2v-2.9h9.2c.3 0 .5-.3.5-.8s-.2-.8-.5-.8zm14 0h-6.7c-.9 0-1.6-.3-2.2-1-.6-.6-.8-1.4-.8-2.3s.3-1.7.8-2.3c.6-.6 1.3-1 2.2-1h9.2v2.5h-9.2c-.3 0-.5.3-.5.8s.2.8.5.8h6.7c.9 0 1.6.3 2.2 1 .5.6.8 1.4.8 2.3s-.3 1.6-.8 2.3c-.6.6-1.3 1.4-2.2 1.4h-9.2v-2.9h9.2c.3 0 .5-.3.5-.8s-.2-.8-.5-.8zm-14.7-36 10.1 27.5h-6.4l-10.8-17z" transform="matrix(3.6 0 0 3.6 100 119.18)"/></svg>

<?xml version="1.0" encoding="UTF-8" standalone="no"?>
<!DOCTYPE svg PUBLIC "-//W3C//DTD SVG 1.1//EN" "http://www.w3.org/Graphics/SVG/1.1/DTD/svg11.dtd">
<svg width="100%" height="100%" viewBox="0 0 560 400" version="1.1" xmlns="http://www.w3.org/2000/svg" xmlns:xlink="http://www.w3.org/1999/xlink" xml:space="preserve" xmlns:serif="http://www.serif.com/" style="fill-rule:evenodd;clip-rule:evenodd;stroke-linejoin:round;stroke-miterlimit:1.41421;">
    <g transform="matrix(3.6,0,0,3.6,100,119.18)">
        <path d="M94.2,32L84.7,0L94.8,0L99.1,32L94.2,32ZM83.1,32L71.6,32L66.9,24.8L62.3,32L51,32L61.4,15.1L51.7,0L63,0L67.2,6.8L70.8,0L82.3,0L72.4,15.3L83.1,32ZM38.8,31.9C29.1,31.9 21.2,24.8 21.2,15.9C21.2,7.1 29.1,-0.1 38.8,-0.1C48.5,-0.1 56.4,7 56.4,15.9C56.5,24.8 48.6,31.9 38.8,31.9ZM42,8.8C42,8.8 42.1,6.5 38.9,6.5C35.8,6.5 36,8.8 36,8.8L36,23.4C36,23.4 35.9,25 38.8,25C41.7,25 42,23.8 42,22.2L42,8.8ZM10.1,13L20.1,13L20.1,22L10.1,22L10.1,32L0,32L0,0L21.4,0L21.5,9L10.1,9L10.1,13ZM12.4,34.9C12.9,35.4 13.1,36.1 13.1,36.9C13.1,37.9 12.7,38.6 12,39.2C12.9,39.7 13.3,40.5 13.3,41.6C13.3,42.4 13,43.1 12.5,43.6C12,44.3 11.3,45 10.4,45L0,45L0,34L10.1,34C11.1,34 11.8,34.3 12.4,34.9ZM2.5,42.1L10.3,42.1C10.7,42.1 10.8,41.8 10.8,41.3C10.8,40.8 10.6,40.5 10.3,40.5L2.5,40.5L2.5,42.1ZM2.5,38.1L10.1,38.1C10.5,38.1 10.6,37.8 10.6,37.3C10.6,36.8 10.4,36.5 10.1,36.5L2.5,36.5L2.5,38.1ZM17.2,41.3C17.2,41.8 17.4,42.1 17.7,42.1L24.7,42.1C25,42.1 25.2,41.8 25.2,41.3L25.2,34L27.7,34L27.7,41.3C27.7,42.2 27.4,43 26.9,43.6C26.3,44.2 25.6,45 24.7,45L17.7,45C16.8,45 16.1,44.2 15.5,43.6C14.9,43 14.7,42.2 14.7,41.3L14.7,34L17.2,34L17.2,41.3ZM39,40.5L32.3,40.5C31.4,40.5 30.7,40.2 30.1,39.5C29.5,38.9 29.3,38.1 29.3,37.2C29.3,36.3 29.6,35.5 30.1,34.9C30.7,34.3 31.4,33.9 32.3,33.9L41.5,33.9L41.5,36.4L32.3,36.4C32,36.4 31.8,36.7 31.8,37.2C31.8,37.7 32,38 32.3,38L39,38C39.9,38 40.6,38.3 41.2,39C41.7,39.6 42,40.4 42,41.3C42,42.2 41.7,42.9 41.2,43.6C40.6,44.2 39.9,45 39,45L29.8,45L29.8,42.1L39,42.1C39.3,42.1 39.5,41.8 39.5,41.3C39.5,40.8 39.4,40.5 39,40.5ZM45.8,45L43.3,45L43.3,34L45.8,34L45.8,45ZM56.3,41.1L56.3,34L58.8,34L58.8,45L56.3,45L49.9,37.5L49.9,45L47.4,45L47.4,34L49.9,34L56.3,41.1ZM71.7,36.5L62.8,36.5L62.8,38.1L71.1,38.1L71.1,40.6L62.8,40.6L62.8,42.2L71.6,42.2L71.6,45L60.3,45L60.3,34L71.6,34L71.6,36.5L71.7,36.5ZM83,40.5L76.3,40.5C75.4,40.5 74.7,40.2 74.1,39.5C73.5,38.9 73.3,38.1 73.3,37.2C73.3,36.3 73.6,35.5 74.1,34.9C74.7,34.3 75.4,33.9 76.3,33.9L85.5,33.9L85.5,36.4L76.3,36.4C76,36.4 75.8,36.7 75.8,37.2C75.8,37.7 76,38 76.3,38L83,38C83.9,38 84.6,38.3 85.2,39C85.7,39.6 86,40.4 86,41.3C86,42.2 85.7,42.9 85.2,43.6C84.6,44.2 83.9,45 83,45L73.8,45L73.8,42.1L83,42.1C83.3,42.1 83.5,41.8 83.5,41.3C83.5,40.8 83.3,40.5 83,40.5ZM97,40.5L90.3,40.5C89.4,40.5 88.7,40.2 88.1,39.5C87.5,38.9 87.3,38.1 87.3,37.2C87.3,36.3 87.6,35.5 88.1,34.9C88.7,34.3 89.4,33.9 90.3,33.9L99.5,33.9L99.5,36.4L90.3,36.4C90,36.4 89.8,36.7 89.8,37.2C89.8,37.7 90,38 90.3,38L97,38C97.9,38 98.6,38.3 99.2,39C99.7,39.6 100,40.4 100,41.3C100,42.2 99.7,42.9 99.2,43.6C98.6,44.2 97.9,45 97,45L87.8,45L87.8,42.1L97,42.1C97.3,42.1 97.5,41.8 97.5,41.3C97.5,40.8 97.3,40.5 97,40.5ZM82.3,4.5L92.4,32L86,32L75.2,15L82.3,4.5Z"/>
    </g>
</svg>
